Sweet-Rainbow/icons/codeblocks.svg

<?xml version="1.0" encoding="UTF-8" standalone="no"?>
<!-- Generator: Gravit.io -->

<svg
   xmlns:dc="http://purl.org/dc/elements/1.1/"
   xmlns:cc="http://creativecommons.org/ns#"
   xmlns:rdf="http://www.w3.org/1999/02/22-rdf-syntax-ns#"
   xmlns:svg="http://www.w3.org/2000/svg"
   xmlns="http://www.w3.org/2000/svg"
   xmlns:sodipodi="http://sodipodi.sourceforge.net/DTD/sodipodi-0.dtd"
   xmlns:inkscape="http://www.inkscape.org/namespaces/inkscape"
   style="isolation:isolate"
   viewBox="0 0 36 36"
   width="48"
   height="48"
   version="1.1"
   id="svg30"
   sodipodi:docname="codeblocks.svg"
   inkscape:version="0.92.4 (5da689c313, 2019-01-14)">
  <metadata
     id="metadata36">
    <rdf:RDF>
      <cc:Work
         rdf:about="">
        <dc:format>image/svg+xml</dc:format>
        <dc:type
           rdf:resource="http://purl.org/dc/dcmitype/StillImage" />
        <dc:title></dc:title>
      </cc:Work>
    </rdf:RDF>
  </metadata>
  <defs
     id="defs34" />
  <sodipodi:namedview
     pagecolor="#ffffff"
     bordercolor="#666666"
     borderopacity="1"
     objecttolerance="10"
     gridtolerance="10"
     guidetolerance="10"
     inkscape:pageopacity="0"
     inkscape:pageshadow="2"
     inkscape:window-width="640"
     inkscape:window-height="480"
     id="namedview32"
     showgrid="false"
     inkscape:zoom="29.365243"
     inkscape:cx="25.325443"
     inkscape:cy="32"
     inkscape:current-layer="svg30"
     units="px" />
  <linearGradient
     id="_lgradient_35"
     x1="0.92934781"
     y1="0.097222224"
     x2="0.034903381"
     y2="0.92777777"
     gradientTransform="matrix(23,0,0,18,23,5)"
     gradientUnits="userSpaceOnUse">
    <stop
       offset="0%"
       stop-opacity="1"
       style="stop-color:rgb(67,233,123)"
       id="stop2" />
    <stop
       offset="97.82608695652173%"
       stop-opacity="1"
       style="stop-color:rgb(56,249,215)"
       id="stop4" />
  </linearGradient>
  <linearGradient
     id="_lgradient_36"
     x1="0.96875"
     y1="0.94999999"
     x2="-0.098260306"
     y2="-0.10219072"
     gradientTransform="matrix(20,0,0,20,2,5)"
     gradientUnits="userSpaceOnUse">
    <stop
       offset="0%"
       stop-opacity="1"
       style="stop-color:rgb(255,65,108)"
       id="stop9" />
    <stop
       offset="84.34782608695653%"
       stop-opacity="1"
       style="stop-color:rgb(255,75,43)"
       id="stop11" />
  </linearGradient>
  <linearGradient
     id="_lgradient_37"
     x1="0.043478262"
     y1="0.94444442"
     x2="0.98792273"
     y2="-0.070679009"
     gradientTransform="matrix(23,0,0,18,2,26)"
     gradientUnits="userSpaceOnUse">
    <stop
       offset="0%"
       stop-opacity="1"
       style="stop-color:rgb(247,242,6)"
       id="stop16" />
    <stop
       offset="97.82608695652173%"
       stop-opacity="1"
       style="stop-color:rgb(255,187,36)"
       id="stop18" />
  </linearGradient>
  <linearGradient
     id="_lgradient_38"
     x1="0.93124998"
     y1="0.96249998"
     x2="-0.06296806"
     y2="0.012610132"
     gradientTransform="matrix(20,0,0,20,26,24)"
     gradientUnits="userSpaceOnUse">
    <stop
       offset="0%"
       stop-opacity="1"
       style="stop-color:rgb(0,198,255)"
       id="stop23" />
    <stop
       offset="98.69565217391305%"
       stop-opacity="1"
       style="stop-color:rgb(0,114,255)"
       id="stop25" />
  </linearGradient>
  <g
     id="g847"
     transform="matrix(0.81818182,0,0,0.81818182,-1.6363637,-2.0454546)">
    <path
       id="path7"
       d="m 30,16 v 0 c 0,1.104 -0.896,2 -2,2 v 0 c -1.104,0 -2,-0.896 -2,-2 v 0 -8 c 0,-1.656 1.344,-3 3,-3 h 14 c 1.656,0 3,1.344 3,3 v 12 c 0,1.656 -1.344,3 -3,3 H 25 v 0 c -1.104,0 -2,-0.896 -2,-2 v 0 c 0,-1.104 0.896,-2 2,-2 v 0 H 42 V 9 H 30 Z"
       style="fill:url(#_lgradient_35)"
       inkscape:connector-curvature="0" />
    <path
       id="path14"
       d="m 14,19 v 0 c 1.104,0 2,0.896 2,2 v 0 c 0,1.104 -0.896,2 -2,2 v 0 H 5 C 3.344,23 2,21.656 2,20 V 8 C 2,6.344 3.344,5 5,5 h 14 c 1.656,0 3,1.344 3,3 v 15 0 c 0,1.104 -0.896,2 -2,2 v 0 c -1.104,0 -2,-0.896 -2,-2 V 23 9 H 6 v 10 z"
       style="fill:url(#_lgradient_36)"
       inkscape:connector-curvature="0" />
    <path
       id="path21"
       d="m 18,34 v 0 c 0,-1.104 0.896,-2 2,-2 v 0 c 1.104,0 2,0.896 2,2 v 0 7 c 0,1.656 -1.344,3 -3,3 H 5 C 3.344,44 2,42.656 2,41 V 29 c 0,-1.656 1.344,-3 3,-3 h 18 v 0 c 1.104,0 2,0.896 2,2 v 0 c 0,1.104 -0.896,2 -2,2 v 0 H 6 v 10 h 12 z"
       style="fill:url(#_lgradient_37)"
       inkscape:connector-curvature="0" />
    <path
       id="path28"
       d="m 34,30 v 0 c -1.104,0 -2,-0.896 -2,-2 v 0 c 0,-1.104 0.896,-2 2,-2 v 0 h 9 c 1.656,0 3,1.344 3,3 v 12 c 0,1.656 -1.344,3 -3,3 H 29 c -1.656,0 -3,-1.344 -3,-3 v -15 0 c 0,-1.104 0.896,-2 2,-2 v 0 c 1.104,0 2,0.896 2,2 v 0 14 H 42 V 30 Z"
       style="fill:url(#_lgradient_38)"
       inkscape:connector-curvature="0" />
  </g>
</svg>

<?xml version="1.0" encoding="UTF-8" standalone="no"?><!-- Generator: Gravit.io --><svg xmlns="http://www.w3.org/2000/svg" xmlns:xlink="http://www.w3.org/1999/xlink" style="isolation:isolate" viewBox="0 0 48 48" width="48pt" height="48pt"><linearGradient id="_lgradient_35" x1="0.9293478260869564" y1="0.09722222222222227" x2="0.034903381642512166" y2="0.9277777777777778" gradientTransform="matrix(23,0,0,18,23,5)" gradientUnits="userSpaceOnUse"><stop offset="0%" stop-opacity="1" style="stop-color:rgb(67,233,123)"/><stop offset="97.82608695652173%" stop-opacity="1" style="stop-color:rgb(56,249,215)"/></linearGradient><path d=" M 30 16 L 30 16 C 30 17.104 29.104 18 28 18 L 28 18 C 26.896 18 26 17.104 26 16 L 26 16 L 26 8 C 26 6.344 27.344 5 29 5 L 43 5 C 44.656 5 46 6.344 46 8 L 46 20 C 46 21.656 44.656 23 43 23 L 25 23 L 25 23 C 23.896 23 23 22.104 23 21 L 23 21 C 23 19.896 23.896 19 25 19 L 25 19 L 42 19 L 42 9 L 30 9 L 30 16 Z " fill="url(#_lgradient_35)"/><linearGradient id="_lgradient_36" x1="0.96875" y1="0.9500000000000001" x2="-0.09826030927835139" y2="-0.10219072164948428" gradientTransform="matrix(20,0,0,20,2,5)" gradientUnits="userSpaceOnUse"><stop offset="0%" stop-opacity="1" style="stop-color:rgb(255,65,108)"/><stop offset="84.34782608695653%" stop-opacity="1" style="stop-color:rgb(255,75,43)"/></linearGradient><path d=" M 14 19 L 14 19 C 15.104 19 16 19.896 16 21 L 16 21 C 16 22.104 15.104 23 14 23 L 14 23 L 5 23 C 3.344 23 2 21.656 2 20 L 2 8 C 2 6.344 3.344 5 5 5 L 19 5 C 20.656 5 22 6.344 22 8 L 22 23 L 22 23 C 22 24.104 21.104 25 20 25 L 20 25 C 18.896 25 18 24.104 18 23 L 18 23 L 18 9 L 6 9 L 6 19 L 14 19 Z " fill="url(#_lgradient_36)"/><linearGradient id="_lgradient_37" x1="0.043478260869565244" y1="0.9444444444444442" x2="0.98792270531401" y2="-0.0706790123456793" gradientTransform="matrix(23,0,0,18,2,26)" gradientUnits="userSpaceOnUse"><stop offset="0%" stop-opacity="1" style="stop-color:rgb(247,242,6)"/><stop offset="97.82608695652173%" stop-opacity="1" style="stop-color:rgb(255,187,36)"/></linearGradient><path d=" M 18 34 L 18 34 C 18 32.896 18.896 32 20 32 L 20 32 C 21.104 32 22 32.896 22 34 L 22 34 L 22 41 C 22 42.656 20.656 44 19 44 L 5 44 C 3.344 44 2 42.656 2 41 L 2 29 C 2 27.344 3.344 26 5 26 L 23 26 L 23 26 C 24.104 26 25 26.896 25 28 L 25 28 C 25 29.104 24.104 30 23 30 L 23 30 L 6 30 L 6 40 L 18 40 L 18 34 Z " fill="url(#_lgradient_37)"/><linearGradient id="_lgradient_38" x1="0.9312500000000004" y1="0.9624999999999997" x2="-0.0629680616740087" y2="0.012610132158589749" gradientTransform="matrix(20,0,0,20,26,24)" gradientUnits="userSpaceOnUse"><stop offset="0%" stop-opacity="1" style="stop-color:rgb(0,198,255)"/><stop offset="98.69565217391305%" stop-opacity="1" style="stop-color:rgb(0,114,255)"/></linearGradient><path d=" M 34 30 L 34 30 C 32.896 30 32 29.104 32 28 L 32 28 C 32 26.896 32.896 26 34 26 L 34 26 L 43 26 C 44.656 26 46 27.344 46 29 L 46 41 C 46 42.656 44.656 44 43 44 L 29 44 C 27.344 44 26 42.656 26 41 L 26 26 L 26 26 C 26 24.896 26.896 24 28 24 L 28 24 C 29.104 24 30 24.896 30 26 L 30 26 L 30 40 L 42 40 L 42 30 L 34 30 Z " fill="url(#_lgradient_38)"/></svg>
